src/svgs/linkedin.svg

<svg width="50" height="50" viewBox="0 0 50 50" fill="none" xmlns="http://www.w3.org/2000/svg">
<path d="M37.3047 48.0469H2.92969C2.39105 48.0469 1.95312 47.6089 1.95312 47.0703V2.92969C1.95312 2.39105 2.39105 1.95312 2.92969 1.95312H4.88281C5.42221 1.95312 5.85938 1.51596 5.85938 0.976562C5.85938 0.437164 5.42221 0 4.88281 0H2.92969C1.31416 0 0 1.31416 0 2.92969V47.0703C0 48.6858 1.31416 50 2.92969 50H37.3047C37.8437 50 38.2812 49.5628 38.2812 49.0234C38.2812 48.484 37.8441 48.0469 37.3047 48.0469Z" fill="#EE7D00"/>
<path d="M47.0703 0H12.6953C12.1559 0 11.7188 0.437164 11.7188 0.976562C11.7188 1.51596 12.1559 1.95312 12.6953 1.95312H47.0703C47.6089 1.95312 48.0469 2.39105 48.0469 2.92969V47.0703C48.0469 47.6089 47.6089 48.0469 47.0703 48.0469H45.1172C44.5778 48.0469 44.1406 48.484 44.1406 49.0234C44.1406 49.5628 44.5778 50 45.1172 50H47.0703C48.6858 50 50 48.6855 50 47.0703V2.92969C50 1.31416 48.6858 0 47.0703 0Z" fill="#EE7D00"/>
<path d="M12.0361 17.2607C14.8766 17.2607 17.1875 14.9498 17.1875 12.1094C17.1875 9.26857 14.8766 6.95801 12.0361 6.95801C9.19533 6.95801 6.88477 9.26895 6.88477 12.1094C6.88477 14.9498 9.19533 17.2607 12.0361 17.2607ZM12.0361 8.91113C13.7997 8.91113 15.2344 10.3458 15.2344 12.1094C15.2344 13.8729 13.7997 15.3076 12.0361 15.3076C10.2726 15.3076 8.83789 13.8729 8.83789 12.1094C8.83789 10.3458 10.2726 8.91113 12.0361 8.91113Z" fill="#EE7D00"/>
<path d="M33.6182 17.749C31.4598 17.749 29.3766 18.4998 27.71 19.8265V19.2139C27.71 18.6745 27.2724 18.2373 26.7334 18.2373H19.9219C19.3825 18.2373 18.9453 18.6745 18.9453 19.2139V42.0654C18.9453 42.6048 19.3825 43.042 19.9219 43.042H27.0996C27.6386 43.042 28.0762 42.6048 28.0762 42.0654V28.8757C28.0762 27.2469 29.4014 25.9216 31.0303 25.9216C32.6591 25.9216 33.9844 27.2469 33.9844 28.8757V42.0654C33.9844 42.6048 34.4215 43.042 34.9609 43.042H42.1387C42.6777 43.042 43.1152 42.6048 43.1152 42.0654V27.2461C43.1152 22.0093 38.8546 17.749 33.6182 17.749ZM41.1621 41.0889H35.9375V28.8757C35.9375 26.17 33.736 23.9685 31.0303 23.9685C28.3241 23.9685 26.123 26.17 26.123 28.8757V41.0889H20.8984V20.1904H25.7568V22.2424C25.7568 22.665 26.0284 23.0396 26.4305 23.1709C26.8318 23.3017 27.2728 23.1594 27.5219 22.818C28.9463 20.8672 31.2252 19.7021 33.6182 19.7021C37.7777 19.7021 41.1621 23.0862 41.1621 27.2461V41.0889Z" fill="#EE7D00"/>
<path d="M8.44727 18.2373C7.90787 18.2373 7.4707 18.6745 7.4707 19.2139V42.0654C7.4707 42.6048 7.90787 43.042 8.44727 43.042H15.625C16.164 43.042 16.6016 42.6048 16.6016 42.0654V19.2139C16.6016 18.6745 16.164 18.2373 15.625 18.2373H8.44727ZM14.6484 41.0889H9.42383V20.1904H14.6484V41.0889Z" fill="#EE7D00"/>
<path d="M8.78944 1.95312C9.32846 1.95312 9.76601 1.51596 9.76601 0.976562C9.76601 0.437164 9.32846 0 8.78944 0H8.78868C8.24928 0 7.8125 0.437164 7.8125 0.976562C7.8125 1.51596 8.25005 1.95312 8.78944 1.95312Z" fill="#EE7D00"/>
<path d="M41.2113 48.0469H41.2106C40.6712 48.0469 40.2344 48.484 40.2344 49.0234C40.2344 49.5628 40.6719 50 41.2113 50C41.7507 50 42.1879 49.5628 42.1879 49.0234C42.1879 48.484 41.7507 48.0469 41.2113 48.0469Z" fill="#EE7D00"/>
</svg>

<svg width="50" height="50" fill="none" xmlns="http://www.w3.org/2000/svg"><path d="M37.305 48.047H2.93a.978.978 0 0 1-.977-.977V2.93c0-.539.438-.977.977-.977h1.953a.976.976 0 1 0 0-1.953H2.93A2.933 2.933 0 0 0 0 2.93v44.14A2.933 2.933 0 0 0 2.93 50h34.375a.977.977 0 0 0 0-1.953ZM47.07 0H12.695a.976.976 0 1 0 0 1.953H47.07c.539 0 .977.438.977.977v44.14a.978.978 0 0 1-.977.977h-1.953a.976.976 0 1 0 0 1.953h1.953A2.933 2.933 0 0 0 50 47.07V2.93A2.933 2.933 0 0 0 47.07 0Z" fill="#EE7D00"/><path d="M12.036 17.26c2.84 0 5.152-2.31 5.152-5.15 0-2.841-2.311-5.152-5.152-5.152a5.157 5.157 0 0 0-5.151 5.151c0 2.84 2.31 5.152 5.151 5.152Zm0-8.349a3.202 3.202 0 0 1 3.198 3.198 3.202 3.202 0 0 1-3.198 3.199 3.202 3.202 0 0 1-3.198-3.199 3.202 3.202 0 0 1 3.198-3.198ZM33.618 17.749c-2.158 0-4.241.75-5.908 2.078v-.613a.977.977 0 0 0-.977-.977h-6.811a.977.977 0 0 0-.977.977v22.851c0 .54.438.977.977.977H27.1a.977.977 0 0 0 .976-.977v-13.19a2.958 2.958 0 0 1 2.954-2.953 2.958 2.958 0 0 1 2.954 2.954v13.19c0 .539.438.976.977.976h7.178a.977.977 0 0 0 .976-.977V27.246c0-5.237-4.26-9.497-9.497-9.497Zm7.544 23.34h-5.224V28.876a4.913 4.913 0 0 0-4.908-4.908 4.913 4.913 0 0 0-4.907 4.908v12.213h-5.225V20.19h4.859v2.052a.977.977 0 0 0 1.765.576 7.583 7.583 0 0 1 6.096-3.116c4.16 0 7.544 3.384 7.544 7.544V41.09ZM8.447 18.237a.977.977 0 0 0-.976.977v22.851c0 .54.437.977.976.977h7.178a.977.977 0 0 0 .977-.977V19.214a.977.977 0 0 0-.977-.977H8.447Zm6.201 22.852H9.424V20.19h5.224V41.09ZM8.79 1.953A.977.977 0 0 0 8.79 0h-.001a.976.976 0 1 0 0 1.953ZM41.211 48.047a.976.976 0 1 0-.002 1.952.976.976 0 0 0 .002-1.952Z" fill="#EE7D00"/></svg>
